X:896
T:Viscountess Duncan
R:Strathspey
B:The Athole Collection
M:C|
L:1/8
K:D
d/B/|A>D B/A/G/F/ E2 E>B|A>D B/A/G/F/ A<D d>B|A<D B/A/G/F/ E2 E>F|
D<A, A,>B, D2D:|
g|f>d f/g/a/f/ e2 e>g|f>d f/g/a/f/ d<af>d|gb/g/ fa/f/ e2 d>f|d>BA>F A2 A>g|
f>d f/g/a/f/ e2 e>g|f>d f/g/a/f/ d>BA>F|G/A/B/c/ d>F E2 E>F|D<A, A,>B, D2D||

